apps/sim/public/brandbook/icon/black.svg

<svg fill="none" height="222" viewBox="0 0 222 222" width="222" xmlns="http://www.w3.org/2000/svg" xmlns:xlink="http://www.w3.org/1999/xlink"><linearGradient id="a" gradientUnits="userSpaceOnUse" x1="129.434" x2="185.629" y1="129.266" y2="185.33"><stop offset="0"/><stop offset="1" stop-opacity="0"/></linearGradient><path clip-rule="evenodd" d="m107.822 93.7612c0 3.5869-1.419 7.0308-3.938 9.5668l-.361.364c-2.517 2.544-5.9375 3.966-9.4994 3.966h-80.5781c-7.42094 0-13.4455 6.06-13.4455 13.533v87.141c0 7.474 6.02456 13.534 13.4455 13.534h86.5167c7.4208 0 13.4378-6.06 13.4378-13.534v-81.587c0-3.326 1.31-6.517 3.647-8.871 2.33-2.347 5.499-3.667 8.802-3.667h81.928c7.421 0 13.437-6.059 13.437-13.533v-87.1407c0-7.47374-6.016-13.5333-13.437-13.5333h-86.517c-7.421 0-13.438 6.05956-13.438 13.5333zm26.256-75.2112h60.874c4.337 0 7.844 3.5393 7.844 7.9003v61.3071c0 4.3604-3.507 7.9003-7.844 7.9003h-60.874c-4.33 0-7.845-3.5399-7.845-7.9003v-61.3071c0-4.361 3.515-7.9003 7.845-7.9003z" fill="#1c1c1c" fill-rule="evenodd"/><path d="m207.878 129.57h-64.324c-7.798 0-14.12 6.367-14.12 14.221v63.993c0 7.854 6.322 14.221 14.12 14.221h64.324c7.799 0 14.121-6.367 14.121-14.221v-63.993c0-7.854-6.322-14.221-14.121-14.221z" fill="#1c1c1c"/><path d="m207.878 129.266h-64.324c-7.798 0-14.12 6.366-14.12 14.221v63.992c0 7.854 6.322 14.22 14.12 14.22h64.324c7.799 0 14.121-6.366 14.121-14.22v-63.992c0-7.855-6.322-14.221-14.121-14.221z" fill="url(#a)" fill-opacity=".2"/></svg>

<svg width="222" height="222" viewBox="0 0 222 222" fill="none" xmlns="http://www.w3.org/2000/svg">
<path fill-rule="evenodd" clip-rule="evenodd" d="M107.822 93.7612C107.822 97.3481 106.403 100.792 103.884 103.328L103.523 103.692C101.006 106.236 97.5855 107.658 94.0236 107.658H13.4455C6.02456 107.658 0 113.718 0 121.191V208.332C0 215.806 6.02456 221.866 13.4455 221.866H99.9622C107.383 221.866 113.4 215.806 113.4 208.332V126.745C113.4 123.419 114.71 120.228 117.047 117.874C119.377 115.527 122.546 114.207 125.849 114.207H207.777C215.198 114.207 221.214 108.148 221.214 100.674V13.5333C221.214 6.05956 215.198 0 207.777 0H121.26C113.839 0 107.822 6.05956 107.822 13.5333V93.7612ZM134.078 18.55H194.952C199.289 18.55 202.796 22.0893 202.796 26.4503V87.7574C202.796 92.1178 199.289 95.6577 194.952 95.6577H134.078C129.748 95.6577 126.233 92.1178 126.233 87.7574V26.4503C126.233 22.0893 129.748 18.55 134.078 18.55Z" fill="#1C1C1C"/>
<path d="M207.878 129.57H143.554C135.756 129.57 129.434 135.937 129.434 143.791V207.784C129.434 215.638 135.756 222.005 143.554 222.005H207.878C215.677 222.005 221.999 215.638 221.999 207.784V143.791C221.999 135.937 215.677 129.57 207.878 129.57Z" fill="#1C1C1C"/>
<path d="M207.878 129.266H143.554C135.756 129.266 129.434 135.632 129.434 143.487V207.479C129.434 215.333 135.756 221.699 143.554 221.699H207.878C215.677 221.699 221.999 215.333 221.999 207.479V143.487C221.999 135.632 215.677 129.266 207.878 129.266Z" fill="url(#paint0_linear_3822_13388)" fill-opacity="0.2"/>
<defs>
<linearGradient id="paint0_linear_3822_13388" x1="129.434" y1="129.266" x2="185.629" y2="185.33" gradientUnits="userSpaceOnUse">
<stop/>
<stop offset="1" stop-opacity="0"/>
</linearGradient>
</defs>
</svg>
